X: 119
T: No_77_Funeral_Song_(a).krn
N: Derived from No_77_Funeral_Song_(a).krn
%%abc-version 2.0
%%abcx-abcm2ps-target-version 5.9.1 (29 Sep 2008)
%%abc-creator hum2abc beta
%%abcx-conversion-date 2019/03/15 08:35:45
%%humdrum-veritas 1627226532
%%humdrum-veritas-data 1983263036
%%linebreak <none>
%%barnumbers 0
L: 1/16
M: 2/4
K: E clef=bass
[K:clef=bass][M:2/4]z4z2 z B, | 
B,3B, =C3C | 
B,3B, B,2B,G, ||  
[M:3/4]F,3F,F,4F,2 z B, ||  
[M:2/4]B,3B, B,3B, | 
G,3F, F,2F,E, ||  
[M:3/4]E,3E, E,3E, z3 F, ||  
[M:2/4]F,3F, G,3F, | 
F,3E, E,2E,C, ||  
[M:3/4]B,,3B,, B,,3B,, z3 E, ||  
[M:2/4]E,3E, E,3E, | 
C,3B,, B,,3B,, | 
B,,4z3 B,, | 
B,,3B,, B,,3B,, | 
G,,4z4 |]  



